public/icons/delete.svg

<svg xmlns="http://www.w3.org/2000/svg"  viewBox="0 0 24 24" width="24px" height="24px"><path d="M 10 2 L 9 3 L 3 3 L 3 5 L 4.109375 5 L 5.8925781 20.255859 L 5.8925781 20.263672 C 6.023602 21.250335 6.8803207 22 7.875 22 L 16.123047 22 C 17.117726 22 17.974445 21.250322 18.105469 20.263672 L 18.107422 20.255859 L 19.890625 5 L 21 5 L 21 3 L 15 3 L 14 2 L 10 2 z M 6.125 5 L 17.875 5 L 16.123047 20 L 7.875 20 L 6.125 5 z"/></svg>

<svg xmlns="http://www.w3.org/2000/svg" xmlns:xlink="http://www.w3.org/1999/xlink" viewBox="0,0,256,256" width="24px" height="24px" fill-rule="nonzero"><g fill="#fa5252" fill-rule="nonzero" stroke="none" stroke-width="1" stroke-linecap="butt" stroke-linejoin="miter" stroke-miterlimit="10" stroke-dasharray="" stroke-dashoffset="0" font-family="none" font-weight="none" font-size="none" text-anchor="none" style="mix-blend-mode: normal"><g transform="scale(10.66667,10.66667)"><path d="M10,2l-1,1h-6v2h1.10938l1.7832,15.25586v0.00781c0.13102,0.98666 0.98774,1.73633 1.98242,1.73633h8.24805c0.99468,0 1.8514,-0.74968 1.98242,-1.73633l0.00195,-0.00781l1.7832,-15.25586h1.10938v-2h-6l-1,-1zM6.125,5h11.75l-1.75195,15h-8.24805z"></path></g></g></svg>
